X: 49
% Old value - X: 1
T: Rolling in the Ryegrass
R: reel
M: 4/4
L: 1/8
K: Dmaj
|:A2AF DFAF|G2BG dGBG|ABAF DFAF|GBAG E2D2:|
|:ABde f2fd|g2ge fedB|ABde fefa|gfdf e2d2:|

